X:119
T:Rhosymedre
M:4/2
L:1/2
Q:80
C:John Edwards 1805 - 1885
R:Hymn
K:G
D | G G A A | B3 G | c c B A | G3 D | G G A A
| B3 G | c c B A | G3 d | B B B d | c2 B2
| A3 d | c B A G | F G A F | G A B c | B2 A
2 | G3 ||
